src/img/full-star.svg

<svg width="23" height="23" viewBox="0 0 19 20" fill="none" xmlns="http://www.w3.org/2000/svg">
<path d="M18.6711 7.41927C18.6134 7.24946 18.5073 7.10025 18.3658 6.99006C18.2243 6.87987 18.0537 6.81353 17.8749 6.79922L12.6458 6.38371L10.383 1.3747C10.3109 1.21337 10.1937 1.07634 10.0455 0.980156C9.89725 0.883971 9.72436 0.832739 9.54766 0.832642C9.37097 0.832545 9.19802 0.883587 9.0497 0.979609C8.90137 1.07563 8.78401 1.21253 8.71177 1.37378L6.44895 6.38371L1.2198 6.79922C1.04411 6.81314 0.876144 6.87738 0.736006 6.98425C0.595868 7.09113 0.489488 7.23612 0.429593 7.40187C0.369698 7.56762 0.358824 7.74712 0.398271 7.91889C0.437719 8.09066 0.525818 8.24743 0.652029 8.37044L4.51634 12.1375L3.14966 18.0555C3.10816 18.2347 3.12146 18.4221 3.18783 18.5936C3.2542 18.7651 3.37059 18.9127 3.52187 19.0172C3.67316 19.1217 3.85237 19.1783 4.03624 19.1797C4.22011 19.1811 4.40016 19.1272 4.55303 19.025L9.54737 15.6955L14.5417 19.025C14.6979 19.1288 14.8822 19.1822 15.0697 19.1781C15.2572 19.1739 15.4389 19.1125 15.5905 19.002C15.742 18.8916 15.8561 18.7373 15.9173 18.5601C15.9786 18.3828 15.9841 18.1911 15.9331 18.0106L14.2555 12.1403L18.4161 8.39612C18.6885 8.15031 18.7885 7.7669 18.6711 7.41927Z" fill="#F3CD03"/>
</svg>

<svg width="23" height="23" viewBox="0 0 19 20" fill="none" xmlns="http://www.w3.org/2000/svg"><path d="M18.671 7.42a.918.918 0 0 0-.796-.62l-5.23-.416-2.262-5.01a.916.916 0 0 0-1.671 0l-2.263 5.01-5.23.415A.917.917 0 0 0 .653 8.37l3.864 3.768-1.366 5.917a.917.917 0 0 0 1.403.97l4.994-3.33 4.995 3.33a.918.918 0 0 0 1.391-1.014l-1.678-5.87 4.161-3.745a.919.919 0 0 0 .255-.977Z" fill="#F3CD03"/></svg>
